content/about/community/join/stackoverflow.svg

<svg xmlns="http://www.w3.org/2000/svg" viewBox="0 0 120 120"><path fill="#bcbbbb" d="M84.4 93.8V70.6h7.7v30.9H22.6V70.6h7.7v23.2z"/><path d="M38.8 68.4l37.8 7.9 1.6-7.6-37.8-7.9-1.6 7.6zm5-18l35 16.3 3.2-7-35-16.4-3.2 7.1zm9.7-17.2l29.7 24.7 4.9-5.9-29.7-24.7-4.9 5.9zm19.2-18.3l-6.2 4.6 23 31 6.2-4.6-23-31zM38 86h38.6v-7.7H38V86z" fill="#f48023"/></svg>

<svg version="1.1" xmlns="http://www.w3.org/2000/svg" xmlns:xlink="http://www.w3.org/1999/xlink"
	 viewBox="0 0 120 120" style="enable-background:new 0 0 120 120;" xml:space="preserve">
<style type="text/css">
	.st0{fill:#BCBBBB;}
	.st1{fill:#F48023;}
</style>
<polygon class="st0" points="84.4,93.8 84.4,70.6 92.1,70.6 92.1,101.5 22.6,101.5 22.6,70.6 30.3,70.6 30.3,93.8 "/>
<path class="st1" d="M38.8,68.4l37.8,7.9l1.6-7.6l-37.8-7.9L38.8,68.4z M43.8,50.4l35,16.3l3.2-7l-35-16.4L43.8,50.4z M53.5,33.2
	l29.7,24.7l4.9-5.9L58.4,27.3L53.5,33.2z M72.7,14.9l-6.2,4.6l23,31l6.2-4.6L72.7,14.9z M38,86h38.6v-7.7H38V86z"/>
</svg>
